X:32
T:The Burn of Carnie
T: aka Miss Wedderburn
% Miss Wedderburn is a 19th century reel setting, with a different 2nd turn)
R:strathspey or reel
% for strathspey set more dotted rhythms would be added
C:traditional
O:18th century Scottish
B:Bremner's Collections, 1757
N:melodic code 5L5L5L1 2226L
Z:Paul Stewart Cranford (P.S.C.), <http://www.cranfordpub.com>
L:1/8
Q:244
M:C|
K:Amix
E2 EF EFA(c|TB)ABc BAFA|E2 EF EFAc|TB>ABc A/A/A A2:|
Tc>BAB cdec|d/c/B/A/ GA BcdB|Tc>BAB cdec|d/c/B/A/ ^GB A/A/A Ae|
Tc>BAB cdec|d/c/B/A/ GA BcdB|cAdB ecfd|^geac A/A/A A2|]
